img/radio-on.svg

<svg fill="none" height="26" viewBox="0 0 25 26" width="25" xmlns="http://www.w3.org/2000/svg"><g fill="#c5c5c5"><path clip-rule="evenodd" d="m0 13.3542c0-6.90295 5.597-12.499952 12.5-12.499952s12.5 5.597002 12.5 12.499952c0 6.903-5.597 12.5-12.5 12.5s-12.5-5.597-12.5-12.5zm21 0c0-4.68695-3.813-8.49995-8.5-8.49995s-8.5 3.813-8.5 8.49995c0 4.687 3.813 8.5 8.5 8.5s8.5-3.813 8.5-8.5z" fill-rule="evenodd"/><path d="m12.5 17.8542c2.4853 0 4.5-2.0147 4.5-4.5 0-2.4852-2.0147-4.49995-4.5-4.49995s-4.5 2.01475-4.5 4.49995c0 2.4853 2.0147 4.5 4.5 4.5z"/></g></svg>

<svg width="25" height="26" viewBox="0 0 25 26" fill="none" xmlns="http://www.w3.org/2000/svg">
<path fill-rule="evenodd" clip-rule="evenodd" d="M0 13.3542C0 6.45125 5.597 0.854248 12.5 0.854248C19.403 0.854248 25 6.45125 25 13.3542C25 20.2572 19.403 25.8542 12.5 25.8542C5.597 25.8542 0 20.2572 0 13.3542ZM21 13.3542C21 8.66725 17.187 4.85425 12.5 4.85425C7.813 4.85425 4 8.66725 4 13.3542C4 18.0412 7.813 21.8542 12.5 21.8542C17.187 21.8542 21 18.0412 21 13.3542Z" fill="#C5C5C5"/>
<path d="M12.5 17.8542C14.9853 17.8542 17 15.8395 17 13.3542C17 10.869 14.9853 8.85425 12.5 8.85425C10.0147 8.85425 8 10.869 8 13.3542C8 15.8395 10.0147 17.8542 12.5 17.8542Z" fill="#C5C5C5"/>
</svg>
